assets/img/tasses/TasseCouronne.svg

<?xml version="1.0" encoding="utf-8"?>
<!-- generated at drububu.com  -->
<!DOCTYPE svg PUBLIC "-//W3C//DTD SVG 1.1//EN" "http://www.w3.org/Graphics/SVG/1.1/DTD/svg11.dtd">
<svg version="1.1" preserveAspectRatio="xMinYMin meet" xmlns="http://www.w3.org/2000/svg" xmlns:xlink="http://www.w3.org/1999/xlink" x="0px" y="0px" width="22px" height="18px" viewBox="0 0 22 18">
<path d="M0 0h2v2h-2v-2z" fill="rgb(87,83,59)"/>
<path d="M2 0h6v2h-2v2h-2v-2h-2v-2z" fill="rgba(255,255,255,0)"/>
<path d="M8 0h2v2h-2v-2z" fill="rgb(87,83,59)"/>
<path d="M10 0h6v2h-2v2h-2v-2h-2v-2z" fill="rgba(255,255,255,0)"/>
<path d="M16 0h2v2h-2v-2z" fill="rgb(87,83,59)"/>
<path d="M18 0h4v8h-2v-2h-2v-6z" fill="rgba(255,255,255,0)"/>
<path d="M0 2h2v2h-2v-2z" fill="rgb(75,71,45)"/>
<path d="M2 2h2v2h-2v-2z" fill="rgb(69,65,38)"/>
<path d="M6 2h2v2h-2v-2z" fill="rgb(75,71,45)"/>
<path d="M8 2h2v2h-2v-2z" fill="rgb(255,223,97)"/>
<path d="M10 2h2v2h-2v-2z" fill="rgb(75,71,45)"/>
<path d="M14 2h2v2h-2v-2z" fill="rgb(69,65,38)"/>
<path d="M16 2h2v2h-2v-2z" fill="rgb(75,71,45)"/>
<path d="M0 4h2v10h-2v-10z" fill="rgb(64,59,32)"/>
<path d="M2 4h2v2h-2v-2z" fill="rgb(255,216,64)"/>
<path d="M4 4h2v2h-2v-2z" fill="rgb(64,59,32)"/>
<path d="M6 4h2v2h-2v-2z" fill="rgb(255,216,64)"/>
<path d="M8 4h2v2h-2v-2z" fill="rgb(255,204,0)"/>
<path d="M10 4h2v2h-2v-2z" fill="rgb(255,216,64)"/>
<path d="M12 4h2v2h-2v-2z" fill="rgb(64,59,32)"/>
<path d="M14 4h2v2h-2v-2z" fill="rgb(255,216,64)"/>
<path d="M16 4h2v4h-2v-4z" fill="rgb(64,59,32)"/>
<path d="M2 6h6v2h-6v-2z" fill="rgb(255,204,0)"/>
<path d="M8 6h2v2h-2v-2z" fill="rgb(209,212,4)"/>
<path d="M10 6h6v2h-6v-2z" fill="rgb(255,204,0)"/>
<path d="M18 6h2v2h-2v-2z" fill="rgb(75,71,45)"/>
<path d="M2 8h2v2h-2v-2z" fill="rgb(255,232,0)"/>
<path d="M4 8h2v2h-2v-2z" fill="rgb(255,60,0)"/>
<path d="M6 8h2v2h-2v-2z" fill="rgb(209,235,4)"/>
<path d="M8 8h2v2h-2v-2z" fill="rgb(1,255,33)"/>
<path d="M10 8h2v2h-2v-2z" fill="rgb(209,228,4)"/>
<path d="M12 8h2v2h-2v-2z" fill="rgb(255,60,0)"/>
<path d="M14 8h2v2h-2v-2z" fill="rgb(255,237,0)"/>
<path d="M16 8h2v2h-2v-2z" fill="rgb(255,216,64)"/>
<path d="M18 8h2v2h-2v-2z" fill="rgb(255,225,111)"/>
<path d="M20 8h2v2h-2v-2z" fill="rgb(75,71,45)"/>
<path d="M2 10h2v2h-2v-2z" fill="rgb(255,204,0)"/>
<path d="M4 10h2v2h-2v-2z" fill="rgb(165,86,0)"/>
<path d="M6 10h2v2h-2v-2z" fill="rgb(224,210,3)"/>
<path d="M8 10h2v2h-2v-2z" fill="rgb(58,130,16)"/>
<path d="M10 10h2v2h-2v-2z" fill="rgb(224,210,3)"/>
<path d="M12 10h2v2h-2v-2z" fill="rgb(165,86,0)"/>
<path d="M14 10h2v2h-2v-2z" fill="rgb(255,204,0)"/>
<path d="M16 10h2v2h-2v-2z" fill="rgb(87,78,27)"/>
<path d="M18 10h2v2h-2v-2z" fill="rgb(255,216,64)"/>
<path d="M20 10h2v2h-2v-2z" fill="rgb(64,59,32)"/>
<path d="M2 12h2v2h-2v-2z" fill="rgb(255,237,0)"/>
<path d="M4 12h2v2h-2v-2z" fill="rgb(255,232,0)"/>
<path d="M6 12h2v2h-2v-2z" fill="rgb(255,225,0)"/>
<path d="M8 12h2v2h-2v-2z" fill="rgb(224,234,3)"/>
<path d="M10 12h2v2h-2v-2z" fill="rgb(255,241,0)"/>
<path d="M12 12h2v2h-2v-2z" fill="rgb(255,232,0)"/>
<path d="M14 12h2v2h-2v-2z" fill="rgb(255,225,0)"/>
<path d="M16 12h2v2h-2v-2z" fill="rgb(255,204,0)"/>
<path d="M18 12h2v2h-2v-2z" fill="rgb(64,59,32)"/>
<path d="M20 12h2v6h-6v-2h2v-2h2v-2z" fill="rgba(255,255,255,0)"/>
<path d="M0 14h2v2h-2v-2z" fill="rgb(91,91,91)"/>
<path d="M2 14h2v2h-2v-2z" fill="rgb(255,255,255)"/>
<path d="M4 14h2v2h-2v-2z" fill="rgb(195,195,195)"/>
<path d="M6 14h2v2h-2v-2z" fill="rgb(223,223,223)"/>
<path d="M8 14h2v2h-2v-2z" fill="rgb(255,255,255)"/>
<path d="M10 14h2v2h-2v-2z" fill="rgb(223,223,223)"/>
<path d="M12 14h2v2h-2v-2z" fill="rgb(255,255,255)"/>
<path d="M14 14h2v2h-2v-2z" fill="rgb(195,195,195)"/>
<path d="M16 14h2v2h-2v-2z" fill="rgb(91,91,91)"/>
<path d="M0 16h2v2h-2v-2z" fill="rgba(255,255,255,0)"/>
<path d="M2 16h14v2h-14v-2z" fill="rgb(91,91,91)"/>
</svg>

<svg xmlns="http://www.w3.org/2000/svg" width="22" height="18" preserveAspectRatio="xMinYMin meet"><path fill="#57533B" d="M0 0h2v2H0V0z"/><path fill="rgba(255,255,255,0)" d="M2 0h6v2H6v2H4V2H2V0z"/><path fill="#57533B" d="M8 0h2v2H8V0z"/><path fill="rgba(255,255,255,0)" d="M10 0h6v2h-2v2h-2V2h-2V0z"/><path fill="#57533B" d="M16 0h2v2h-2V0z"/><path fill="rgba(255,255,255,0)" d="M18 0h4v8h-2V6h-2V0z"/><path fill="#4B472D" d="M0 2h2v2H0V2z"/><path fill="#454126" d="M2 2h2v2H2V2z"/><path fill="#4B472D" d="M6 2h2v2H6V2z"/><path fill="#FFDF61" d="M8 2h2v2H8V2z"/><path fill="#4B472D" d="M10 2h2v2h-2V2z"/><path fill="#454126" d="M14 2h2v2h-2V2z"/><path fill="#4B472D" d="M16 2h2v2h-2V2z"/><path fill="#403B20" d="M0 4h2v10H0V4z"/><path fill="#FFD840" d="M2 4h2v2H2V4z"/><path fill="#403B20" d="M4 4h2v2H4V4z"/><path fill="#FFD840" d="M6 4h2v2H6V4z"/><path fill="#FC0" d="M8 4h2v2H8V4z"/><path fill="#FFD840" d="M10 4h2v2h-2V4z"/><path fill="#403B20" d="M12 4h2v2h-2V4z"/><path fill="#FFD840" d="M14 4h2v2h-2V4z"/><path fill="#403B20" d="M16 4h2v4h-2V4z"/><path fill="#FC0" d="M2 6h6v2H2V6z"/><path fill="#D1D404" d="M8 6h2v2H8V6z"/><path fill="#FC0" d="M10 6h6v2h-6V6z"/><path fill="#4B472D" d="M18 6h2v2h-2V6z"/><path fill="#FFE800" d="M2 8h2v2H2V8z"/><path fill="#FF3C00" d="M4 8h2v2H4V8z"/><path fill="#D1EB04" d="M6 8h2v2H6V8z"/><path fill="#01FF21" d="M8 8h2v2H8V8z"/><path fill="#D1E404" d="M10 8h2v2h-2V8z"/><path fill="#FF3C00" d="M12 8h2v2h-2V8z"/><path fill="#FFED00" d="M14 8h2v2h-2V8z"/><path fill="#FFD840" d="M16 8h2v2h-2V8z"/><path fill="#FFE16F" d="M18 8h2v2h-2V8z"/><path fill="#4B472D" d="M20 8h2v2h-2V8z"/><path fill="#FC0" d="M2 10h2v2H2v-2z"/><path fill="#A55600" d="M4 10h2v2H4v-2z"/><path fill="#E0D203" d="M6 10h2v2H6v-2z"/><path fill="#3A8210" d="M8 10h2v2H8v-2z"/><path fill="#E0D203" d="M10 10h2v2h-2v-2z"/><path fill="#A55600" d="M12 10h2v2h-2v-2z"/><path fill="#FC0" d="M14 10h2v2h-2v-2z"/><path fill="#574E1B" d="M16 10h2v2h-2v-2z"/><path fill="#FFD840" d="M18 10h2v2h-2v-2z"/><path fill="#403B20" d="M20 10h2v2h-2v-2z"/><path fill="#FFED00" d="M2 12h2v2H2v-2z"/><path fill="#FFE800" d="M4 12h2v2H4v-2z"/><path fill="#FFE100" d="M6 12h2v2H6v-2z"/><path fill="#E0EA03" d="M8 12h2v2H8v-2z"/><path fill="#FFF100" d="M10 12h2v2h-2v-2z"/><path fill="#FFE800" d="M12 12h2v2h-2v-2z"/><path fill="#FFE100" d="M14 12h2v2h-2v-2z"/><path fill="#FC0" d="M16 12h2v2h-2v-2z"/><path fill="#403B20" d="M18 12h2v2h-2v-2z"/><path fill="rgba(255,255,255,0)" d="M20 12h2v6h-6v-2h2v-2h2v-2z"/><path fill="#5B5B5B" d="M0 14h2v2H0v-2z"/><path fill="#FFF" d="M2 14h2v2H2v-2z"/><path fill="#C3C3C3" d="M4 14h2v2H4v-2z"/><path fill="#DFDFDF" d="M6 14h2v2H6v-2z"/><path fill="#FFF" d="M8 14h2v2H8v-2z"/><path fill="#DFDFDF" d="M10 14h2v2h-2v-2z"/><path fill="#FFF" d="M12 14h2v2h-2v-2z"/><path fill="#C3C3C3" d="M14 14h2v2h-2v-2z"/><path fill="#5B5B5B" d="M16 14h2v2h-2v-2z"/><path fill="rgba(255,255,255,0)" d="M0 16h2v2H0v-2z"/><path fill="#5B5B5B" d="M2 16h14v2H2v-2z"/></svg>
